!!!!SEGMENT: pl-wtm--r-328-m--008_moniuszko-stanislaw--kupiec-wenecki-no-8.krn
!!!cenid: 18xx:2999
!!!COM: Moniuszko, Stanisław
!!!COM-rismid: pe30008351
!!!CDT: 1819/05/05-1872/06/04
!!!CNT: Polish
!!!GTL: Kupiec wenecki
!!!OTL: No. 8
!!!PDT: 1869
!!!AGN: Secular
!!!SMS-siglum: PL-Wtm
!!!SMS-shelfmark: R 328/M
!!!SMS-shelfwork: 008 G
!!!SMS-variant:
!!!SMS-altvar:
!!!NIFC-rismid: 1001090504
!!!URL-scan: http://repozytorium.nifc.pl/skany/pl-wtm-nut--r328m
!!!ONB-nifc: UWAGA: No. 8 (razem: 8a, 8b i 8c), skany 0042-0047
!!!OMD: Lento.
!!!AIN: 1 bass 1 cello 1 clars 1 empty 1 fagot 1 timpa 1 viola 2 violn
!!!key:
**kern	**dynam	**kern	**dynam	**kern	**dynam	**kern	**dynam	**kern	**dynam	**kern	**dynam	**kern	**dynam	**kern	**dynam	**kern	**dynam
*group4	*	*group3	*	*group3	*	*group3	*	*group3	*	*group3	*	*group2	*	*group1	*	*group1	*
*part9	*part9	*part8	*part8	*part7	*part7	*part6	*part6	*part5	*part5	*part4	*part4	*part3	*part3	*part2	*part2	*part1	*part1
*staff9	*	*staff8	*	*staff7	*	*staff6	*	*staff5	*	*staff4	*	*staff3	*	*staff2	*	*staff1	*
*Itimpa	*	*Ibass	*	*Icello	*	*Iviola	*	*Ivioln	*	*Ivioln	*	*Iempty	*	*Ifagot	*	*Iclars	*
*I"Timp.	*	*I"CB.	*	*I"Vcelli.	*	*I"Vla.	*	*I"V. 2.	*	*I"V. 1.	*	*I"in F. Corno.	*	*I"Fag.	*	*I"in B. Clarinetti.	*
*I'Timp.	*	*I'CB.	*	*I'Vcelli.	*	*I'Vla	*	*I'V. 2.	*	*I'V. 1.	*	*I'Cor.	*	*I'Fag.	*	*I'Cl.	*
*clefF4	*	*clefF4	*	*clefF4	*	*clefC3	*	*clefG2	*	*clefG2	*	*clefG2	*	*clefF4	*	*clefG2	*
*	*	*ITrd0c0	*	*	*	*	*	*	*	*	*	*ITrd4c7	*	*	*	*ITrd1c2	*
*k[b-e-]	*	*k[b-e-]	*	*k[b-e-]	*	*k[b-e-]	*	*k[b-e-]	*	*k[b-e-]	*	*k[b-]	*	*k[b-e-]	*	*k[b-e-]	*
*B-:	*	*B-:	*	*B-:	*	*B-:	*	*B-:	*	*B-:	*	*B-:	*	*B-:	*	*B-:	*
*M4/4	*	*M4/4	*	*M4/4	*	*M4/4	*	*M4/4	*	*M4/4	*	*M4/4	*	*M4/4	*	*M4/4	*
*met(c)	*	*met(c)	*	*met(c)	*	*met(c)	*	*met(c)	*	*met(c)	*	*met(c)	*	*met(c)	*	*met(c)	*
=1	=1	=1	=1	=1	=1	=1	=1	=1	=1	=1	=1	=1	=1	=1	=1	=1	=1
*	*	*	*	*	*	*	*	*	*	*	*	*^	*	*	*	*	*
*2\right	*	*2\right	*	*2\right	*	*2\right	*	*2\right	*	*2\right	*	*2\right	*2\right	*	*2\right	*	*2\right	*
!LO:TX:t=P:problem=all\right&colon; global	!	!LO:TX:t=P:problem=all\right&colon; global	!	!LO:TX:t=P:problem=all\right&colon; global	!	!LO:TX:t=P:problem=all\right&colon; global	!	!LO:TX:t=P:problem=all\right&colon; global	!	!LO:TX:t=P:problem=all\right&colon; global	!	!LO:TX:t=P:problem=all\right&colon; global	!LO:TX:t=P:problem=all\right&colon; global	!	!LO:TX:t=P:problem=all\right&colon; global	!	!LO:TX:t=P:problem=all\right&colon; global	!
!	!	!	!	!	!	!	!	!	!	!	!	!	!	!	!	!	!LO:TX:t=P:problem=all\right&colon; global	!
!	!	!	!	!	!	!	!	!	!	!	!	!	!	!	!	!	!LO:TX:a:t=a:color=red	!
!LO:TX:b:t=a:color=red	!	!	!	!	!	!	!	!LO:TX:b:t=a:color=red	!	!	!LO:DY:rj	!LO:TX:a:t=Solo	!	!LO:DY:rj	!	!LO:DY:rj	!LO:TX:a:t=No 8 a&colon;):note=podkreślone na czerwono	!LO:DY:rj
1ryy	.	2BB-/	.	2F\	.	2D/	.	1r	.	2.B-^</	pp	(>2.B-^>/	[>1BB-	pp	2D/	pp	(>2F/	pp
!	!	!	!	!LO:SIC:v:s:t=2G-	!	!	!	!	!	!	!	!	!	!	!	!	!	!
.	.	2E-\	.	2G\	.	2E-/	.	.	.	.	.	.	.	.	2E-/	.	2G-X/	.
.	.	.	.	.	.	.	.	.	.	(<8d/L	.	8d/L	.	.	.	.	.	.
!	!	!	!	!	!	!	!	!	!	!	!	!LO:SIC:v:s=4b-	!	!	!	!	!	!
.	.	.	.	.	.	.	.	.	.	8e-/J)	.	8e/J	.	.	.	.	.	.
=2	=2	=2	=2	=2	=2	=2	=2	=2	=2	=2	=2	=2	=2	=2	=2	=2	=2	=2
1ryy	.	(>4D\	.	(>4D\	.	(>4F/	.	2B-/	.	(<[<2f^>/	.	[2f^>/	4BB-\]	.	[<2F/	.	[<2B-/)	.
.	.	4F\)	.	4F\)	.	4d\)	.	.	.	.	.	.	4r	.	.	.	.	.
.	.	2BB-/	.	2BB-/	.	4B-\	.	2r	.	8f/L]	.	8f/L]	4r	.	8F/]	.	8B-/]	.
.	.	.	.	.	.	.	.	.	.	8d/)	.	8d/	.	.	8r	.	8r	.
.	.	.	.	.	.	4r	.	.	.	(<8c/	.	8c/	8r	.	4r	.	4r	.
.	.	.	.	.	.	.	.	.	.	8B-/J)	.	8B-/J)	8B-\	.	.	.	.	.
=3	=3	=3	=3	=3	=3	=3	=3	=3	=3	=3	=3	=3	=3	=3	=3	=3	=3	=3
1ryy	.	2E-\	.	4BB-/	.	2E-/	.	(<4e-/	.	(<4g^</	.	(>4g^>/	4e-X\	.	(>4BB-/	.	1G	.
.	.	.	.	4BBn/	.	.	.	4d/	.	4f/	.	4f/	4d\	.	4BBn/	.	.	.
.	.	2C\	.	4C/	.	2C/	.	4c/	.	4e-/	.	4e-/	4c\	.	4C/	.	.	.
.	.	.	.	8D/L	.	.	.	4B-/)	.	4d/)	.	4d/)	4BX\	.	8D/L	.	.	.
.	.	.	.	8E-/J	.	.	.	.	.	.	.	.	.	.	8E-/J)	.	.	.
=4	=4	=4	=4	=4	=4	=4	=4	=4	=4	=4	=4	=4	=4	=4	=4	=4	=4	=4
1ryy	.	4F\	.	4F\	.	4.C/	.	2A/	.	2c/	.	4c/	2A\	.	4F\	.	4A/	.
.	.	4E-\	.	4E-\	.	.	.	.	.	.	.	4r	.	.	4E-\	.	4r	.
.	.	.	.	.	.	8r	.	.	.	.	.	.	.	.	.	.	.	.
!	!	!	!	!	!	!	!	!	!	!	!	!LO:TX:t=P:problem=akcent bezpośrednio pod nutą	!	!	!	!	!	!
.	.	8.D^</L	.	8.D^>\L	.	4..F^</	.	2A^</	.	2f^</	.	2f^</	2A\	.	8.D^</L	.	4.F^</	.
.	.	16C/K	.	16C\Jk	.	.	.	.	.	.	.	.	.	.	16C/K	.	.	.
.	.	8.BB-^</	.	8.BB-^</L	.	.	.	.	.	.	.	.	.	.	8.BB-^</	.	.	.
.	.	.	.	.	.	.	.	.	.	.	.	.	.	.	.	.	8r	.
.	.	16AA/Jk	.	16AA/Jk	.	16A/	.	.	.	.	.	.	.	.	16AA/Jk	.	.	.
!!LO:LB:g=original
=5	=5	=5	=5	=5	=5	=5	=5	=5	=5	=5	=5	=5	=5	=5	=5	=5	=5	=5
!LO:TX:t=P:problem=w źródle partia kotłów od drugiego systemu zapisana jest na samej górze, nad pozostałymi instrumentami	!	!	!	!	!	!	!	!	!	!	!	!	!	!	!	!	!	!
1r	.	2GG/	.	2GG^</ 2D	.	4A/	sff	(<4A^</	.	(<[<2B-^</	.	(2B-^>/	(>4A\	.	4GG/	.	1r	.
.	.	.	.	.	.	(<8G/L	.	2.G/)	.	.	.	.	2.G\)	.	(>8G\L	.	.	.
.	.	.	.	.	.	8F/J)	.	.	.	.	.	.	.	.	8F\J)	.	.	.
.	.	2C/	.	2CC^</ 2C	.	2En^</	.	.	.	8B-/L]	.	8B-/L	.	.	2En\	.	.	.
.	.	.	.	.	.	.	.	.	.	8c/J)	.	8c/J)	.	.	.	.	.	.
.	.	.	.	.	.	.	.	.	.	8qen/	.	8qen/	.	.	.	.	.	.
.	.	.	.	.	.	.	.	.	.	8.d/L	.	8.d/L	.	.	.	.	.	.
.	.	.	.	.	.	.	.	.	.	16c/Jk	.	16c/Jk	.	.	.	.	.	.
=6	=6	=6	=6	=6	=6	=6	=6	=6	=6	=6	=6	=6	=6	=6	=6	=6	=6	=6
*	*	*2\left	*	*	*	*	*	*	*	*	*	*	*	*	*	*	*	*
1r	.	(>2.F\	.	(<2.FF/	.	(<4F/	.	8A/	.	4c/	.	4c/	4A\	.	(>4F\	.	4r	.
.	.	.	.	.	.	.	.	8r	.	.	.	.	.	.	.	.	.	.
!	!	!	!	!	!	!	!	!	!	!	!	!	!	!	!	!	!LO:ART:color=blue	!LO:DY:a:rj
.	.	.	.	.	.	2C/)	.	4r	.	8A/L	.	(<8A/L	4r	.	2C/)	.	(>2A^</	p
.	.	.	.	.	.	.	.	.	.	8c/J	.	8c/J)	.	.	.	.	.	.
.	.	.	.	.	.	.	.	(<4A/	.	[>2f^</	.	(>[<2f\	2rA	.	.	.	.	.
.	.	4BBn/)	.	4BBn/)	.	4D-X/	.	4G#X/	.	.	.	.	.	.	4D-X/	.	4G#X/)	.
=7	=7	=7	=7	=7	=7	=7	=7	=7	=7	=7	=7	=7	=7	=7	=7	=7	=7	=7
1ryy	.	1C	.	1CC 1C	.	4.C/	.	2A/)	.	(<8f/L]	.	8f\L]	1r	.	2.C/	.	2A/	.
.	.	.	.	.	.	.	.	.	.	8a/	.	8a\	.	.	.	.	.	.
.	.	.	.	.	.	.	.	.	.	8g/	.	8g\	.	.	.	.	.	.
.	.	.	.	.	.	8A/	.	.	.	8f/J)	.	8f\J)	.	.	.	.	.	.
!	!	!	!	!	!	!LO:ART:color=blue	!	!LO:ART:color=blue	!	!	!	!	!	!	!	!	!	!
.	.	.	.	.	.	(<8B-^</L	.	(<8B-^</L	.	(<4d/	.	4d/	.	.	.	.	(<8B-/L	.
.	.	.	.	.	.	8G/	.	8Gn/	.	.	.	.	.	.	.	.	8Gn/	.
.	.	.	.	.	.	8c/	.	8c/	.	4en/)	.	4en/	.	.	4r	.	8c/	.
.	.	.	.	.	.	8B-/J)	.	8B-/J)	.	.	.	.	.	.	.	.	8B-/J)	.
=8	=8	=8	=8	=8	=8	=8	=8	=8	=8	=8	=8	=8	=8	=8	=8	=8	=8	=8
2r	.	8.F^>\L	.	8.F^>\L	.	4.A/	.	4.A/	.	4.f/	.	4.f\	4.ryy	.	8.F^>\L	.	4.A/	.
.	.	16En\K	.	16En\K	.	.	.	.	.	.	.	.	.	.	16En\K	.	.	.
.	.	(>8E-X\	.	(>8E-X\	.	.	.	.	.	.	.	.	.	.	(>8E-X\	.	.	.
.	.	8D\J)	.	8D\J)	.	8r	.	8r	.	8r	.	8r	8ryy	.	8D\J)	.	8r	.
!LO:S:color=blue	!LO:DY:a:rj	!	!	!	!	!	!	!LO:S:color=blue	!	!LO:S:color=blue	!	!	!	!	!	!	!	!
(>2BB-^</TT	fp	2C^</	.	2CC^</ 2C	.	8.C^</L 8.c	.	2G^/ (>2e-X	.	2G^</ (>2g	.	(>2g/	(>2e-\	.	2C^</	.	8.c^>/L	.
.	.	.	.	.	.	16Bn/K	.	.	.	.	.	.	.	.	.	.	16BX/K	.
.	.	.	.	.	.	(<8B-X/	.	.	.	.	.	.	.	.	.	.	(<8B-/	.
.	.	.	.	.	.	8A/J)	.	.	.	.	.	.	.	.	.	.	8A/J)	.
=9	=9	=9	=9	=9	=9	=9	=9	=9	=9	=9	=9	=9	=9	=9	=9	=9	=9	=9
*	*	*rep	*	*rep	*	*	*	*	*	*	*	*	*	*	*	*	*	*
4F\)	.	8.F^\L	.	8.F^\L	.	2F/	.	2A/)	.	2c/)	.	4c/)	4A\)	.	8.F^>\L	.	4.A/	.
.	.	16En\K	.	16En\K	.	.	.	.	.	.	.	.	.	.	16En\K	.	.	.
4r	.	(8E-X\	.	(8E-X\	.	.	.	.	.	.	.	4r	4ryy	.	(>8E-X\	.	.	.
.	.	8D\J)	.	8D\J)	.	.	.	.	.	.	.	.	.	.	8D\J)	.	8r	.
!LO:TX:t=P:problem=pod nutą zakreślone na czerwono oznaczenie dynamiczne "fp"	!LO:DY:a:rj	!	!	!	!	!	!	!	!	!LO:S:color=blue	!	!	!	!	!	!	!	!
2BB-^</TT	fp	2C^/	.	2CC^/ 2C	.	8.C^</L 8.c	.	2G^</ 2e-X	.	2G^/ (>2g	.	(>2g^>/	(<2e-X\	.	2C^</	.	8.c^</L	.
.	.	.	.	.	.	16B-X/K	.	.	.	.	.	.	.	.	.	.	16B-/K	.
.	.	.	.	.	.	(<8A/	.	.	.	.	.	.	.	.	.	.	8A/	.
.	.	.	.	.	.	8G/J)	.	.	.	.	.	.	.	.	.	.	8G/J	.
*	*	*Xrep	*	*Xrep	*	*	*	*	*	*	*	*	*	*	*	*	*	*
!!LO:PB:g=original
=10	=10	=10	=10	=10	=10	=10	=10	=10	=10	=10	=10	=10	=10	=10	=10	=10	=10	=10
!	!	!LO:ART:color=blue	!	!LO:ART:color=blue	!	!LO:ART:color=blue	!	!LO:ART:color=blue	!	!LO:TX:t=P:problem=brak zakończenia łuku	!	!LO:TX:t=P:problem=brak zakończenia łuku	!LO:TX:t=P:problem=brak zakończenia łuku	!	!	!	!	!
4F\)	.	(>4F^>\	.	(4F^>\	.	(<4A^</	.	(>4B-^</	.	(>4f/)	.	(>4f^</)	4A\)	.	(>4F\	.	(>4A/	.
4F\TT	.	4G\	.	8G\L	.	4G/	.	4B-/	.	8e-X/L	.	8e-X/L	4ryy	.	4G\	.	4B-/	.
.	.	.	.	8E-\J	.	.	.	.	.	8g/J	.	8g/J	.	.	.	.	.	.
4F'\	.	4A\)	.	4F\)	.	4F/)	.	4c/)	.	4f/)	.	4f/)	4ryy	.	4A\)	.	(>4c/)	.
4F'\	.	4B-\	.	4D\	.	4F/	.	4B-/'<	.	4B-'</	.	4B-'>/	4ryy	.	4B-'\	.	4d/)	.
=11	=11	=11	=11	=11	=11	=11	=11	=11	=11	=11	=11	=11	=11	=11	=11	=11	=11	=11
2C^</TT	.	2C^</	.	2CC^</ 2GG	.	2E-^</	.	2B-^</	.	2d^</	.	2d^>/	2B-^<\	.	[>2E-\	.	2E-^</	.
4F\	.	4..F^>\	.	4..FF^</	.	4..E-^</	.	4..A^</	.	4..c^</	.	4..c^>/	4..A\	.	4..E-^\]	.	4..E-^</	.
4F\	.	.	.	.	.	.	.	.	.	.	.	.	.	.	.	.	.	.
.	.	16BB-/	.	16FF/	.	16D/	.	16B-/	.	16B-/	.	16B-/	16B-\	.	16D\	.	16F/	.
=12	=12	=12	=12	=12	=12	=12	=12	=12	=12	=12	=12	=12	=12	=12	=12	=12	=12	=12
*	*	*	*	*	*	*	*	*	*	*	*	*	*	*	*	*	*^	*
!LO:TX:a:t==B:color=red	!	!LO:TX:a:t==B:color=red	!	!	!	!	!	!	!	!LO:TX:a:t==B:color=red	!	!	!	!LO:TX:t=P:stem.color=blue:problem	!	!	!	!	!
4BB-/	.	8BB-/	.	8FF/	.	8D/	.	8B-/	.	8B-/	.	8B-/	8B-\	.	8D\	.	8F/	8ryy	.
.	.	8r	.	8r	.	8r	.	8r	.	8r	.	8r	8ryy	.	8r	.	8r@	8ryy	.
!	!	!	!	!	!	!LO:ART:color=blue	!	!	!	!	!	!	!	!	!	!	!LO:ART:color=blue	!	!
4r	.	4r	.	4r	.	8.f^>\L	.	4r	.	4r	.	4r	4ryy	.	4r	.	8.f^</L	4rF	.
.	.	.	.	.	.	16b-\Jk	.	.	.	.	.	.	.	.	.	.	16b-/Jk	.	.
4r	.	4r	.	4r	.	[>2b-^>\	.	4r	.	4r	.	4r	4ryy	.	4r	.	[>2b-^</	4rF	.
!LO:ART:color=blue	!	!LO:ART:color=blue	!	!LO:ART:color=blue	!	!	!	!LO:ART:color=blue	!	!LO:ART:color=blue	!	!LO:ART:color=blue	!	!LO:DY:rj	!LO:ART:color=blue	!LO:DY:rj	!	!LO:ART:color=blue	!LO:DY:rj
4BB-^</TT	.	(4E-^>\	.	(>4E-^>\	.	.	.	(>4G^>/ (>4e-	.	(<4G^/ (>4e-	.	(<(>4G/ 4e-X^<	4ryy	p	[<4BB-^</	p	.	(<[>4B-\^>	p
*	*	*	*	*	*	*	*	*	*	*	*	*v	*v	*	*	*	*	*	*
=13	=13	=13	=13	=13	=13	=13	=13	=13	=13	=13	=13	=13	=13	=13	=13	=13	=13	=13
8BB-/	.	8BB-/)	.	8BB-/)	.	8b-\]	.	8B-/)) 8d	.	8B-/)) 8d	.	8F/)) 8d	.	8BB-/]	.	8b-/]	8B-\])	.
8r	.	8r	.	8r	.	8r	.	8r	.	8r	.	8r	.	8r	.	8r	8rA	.
!	!	!	!	!	!	!LO:ART:color=blue	!	!	!	!	!	!	!	!	!	!LO:ART:color=blue	!	!
4r	.	4r	.	4r	.	8.d^>\L	.	4r	.	4r	.	4r	.	4r	.	8.d/L^<	4rF@	.
.	.	.	.	.	.	16f\Jk	.	.	.	.	.	.	.	.	.	16f/Jk	.	.
!	!	!	!	!	!	!	!	!	!	!	!	!	!	!	!	!LO:ART:color=blue	!	!
4r	.	4r	.	4r	.	(>2f^>\	.	(>2f^</	.	4r	.	4r	.	4r	.	[>2f/^<	4rF@	.
!	!	!	!	!LO:S:color=blue	!	!	!	!	!	!LO:TX:b:t=a	!	!LO:ART:color=blue	!	!LO:ART:color=blue	!	!	!LO:ART:color=blue	!
!LO:ART:color=blue	!	!LO:ART:color=blue	!	!LO:ART:color=blue	!	!	!	!	!	!LO:ART:color=blue	!	!	!	!	!	!	!	!
(4F^<\TT	.	4F^>\	.	(>4E-^>\	.	.	.	.	.	4A^</	.	(<4E-X^/ (>4A	.	(<4C^</	.	.	(<4F\^>	.
!!LO:LB:g=original
=14	=14	=14	=14	=14	=14	=14	=14	=14	=14	=14	=14	=14	=14	=14	=14	=14	=14	=14
*	*	*	*	*	*	*	*	*	*	*	*	*^	*	*	*	*	*	*
!	!	!	!	!LO:S:color=blue	!	!	!	!	!	!	!	!	!	!	!	!	!	!	!
!LO:TX:t=P:problem=brak zakończenia łuku	!	!	!	!LO:TX:t=P:problem=brak zakończenia łuku	!	!LO:TX:t=P:problem=brak zakończenia łuku	!	!LO:TX:t=P:problem=brak zakończenia łuku	!	!	!	!LO:TX:t=P:problem=brak zakończeń łuków	!	!	!LOTX:t=P:problem=brak zakończenia łuku	!	!LO:TX:t=P:problem=łuk kończy się od dołu	!	!
4F\)	.	(>4BB-\	.	(>4D\)@	.	(>8f\L)	.	(<8B-/L)	.	(<8B-/L	.	8D/) 8B-'<)	8ryy	.	2D/)	.	8f/L]	8F\@	.
.	.	.	.	.	.	8g\	.	8g/	.	8g/	.	8r	8rF@	.	.	.	8g/	8r@	.
8.BB-/L	.	4D\	.	4BB-\@	.	8f\	.	8f/	.	8f/	.	8.B-/L	4rF@	.	.	.	8f/	4r@	.
.	.	.	.	.	.	8d\J)	.	8d/J)	.	8d/J)	.	.	.	.	.	.	8d/J)	.	.
16BB-/Jk	.	.	.	.	.	.	.	.	.	.	.	16B-/Jk	.	.	.	.	.	.	.
4BB-/	.	4G\	.	4D\)@	.	4G/	.	4B-/	.	4B-/	.	4B-/	2rF@	.	4G\	.	4B-/	4r@	.
4BB-/	.	4C\)	.	4C\@	.	4C/ 4B-	.	4B-/	.	4G/ 4e-	.	4B-/	.	.	4C\@	.	4e-/	4G/@	.
=15	=15	=15	=15	=15	=15	=15	=15	=15	=15	=15	=15	=15	=15	=15	=15	=15	=15	=15	=15
*	*	*2\right	*	*	*	*	*	*	*	*	*	*	*	*	*	*	*	*	*
!	!	!LO:S:color=blue	!	!LO:S:color=blue	!	!	!	!LO:ART:color=blue	!	!LO:S:color=blue	!	!	!	!	!	!	!LO:S:color=blue:n=1	!	!
1FTT\	.	(2F\	.	(>2F\	.	2F/	.	(>2.B-^</	.	(>2d/	.	(2.B-/^>	1rF@	.	(>2D\@	.	(>(<2d/	1F@	.
.	.	2FF/	.	2FF/	.	2E-/	.	.	.	2c/	.	.	.	.	2E-\)@	.	2c/)	.	.
.	.	.	.	.	.	.	.	4A-X/)	.	.	.	4A-X/)	.	.	.	.	.	.	.
*	*	*	*	*	*	*	*	*	*	*	*	*v	*v	*	*	*	*	*	*
=16	=16	=16	=16	=16	=16	=16	=16	=16	=16	=16	=16	=16	=16	=16	=16	=16	=16	=16
4F\	.	4GG/)@	.	4GG/)@	.	8D/@	.	4G/	.	4Bn/)	.	8G/	.	4D/	.	4BX/)	4G\@	.
.	.	.	.	.	.	8r@	.	.	.	.	.	8r	.	.	.	.	.	.
!	!	!	!	!	!	!LO:ART:color=blue	!	!	!	!	!	!LO:ART:color=blue	!	!	!	!	!	!
4r	.	4r@	.	4r@	.	8.d^>\L	.	4r	.	4r	.	8.d^</L	.	4r	.	4r	4rD@	.
.	.	.	.	.	.	16f\Jk	.	.	.	.	.	16g/Jk	.	.	.	.	.	.
4r	.	4r@	.	4r@	.	[>2g^\	.	4r	.	4r	.	[>2g^</	.	4r	.	4r	4rD@	.
4r	.	(<4C/	.	[<4GG/ (>4E-	.	.	.	[>4G/	.	(<4c/	.	.	.	(<4C/	.	(>4G/	4G\@	.
=17	=17	=17	=17	=17	=17	=17	=17	=17	=17	=17	=17	=17	=17	=17	=17	=17	=17	=17
1r	.	8GG/)	.	8GG/] 8D)	.	8g\]	.	8G/]	.	8B-X/)	.	8g/]	.	8BB-X/)	.	8B-X/)	8G\@	.
.	.	8r@	.	8r@	.	8r	.	8r	.	8r	.	8r	.	8r	.	8r	8ryy	.
!	!	!	!	!	!	!LO:ART:color=blue	!	!	!	!	!	!LO:ART:color=blue	!	!	!	!	!	!
.	.	4r@	.	4r@	.	8.G^</L	.	4r	.	4r	.	8.G^</L	.	4r	.	4r	4ryy	.
.	.	.	.	.	.	16B-/Jk	.	.	.	.	.	16B-/Jk	.	.	.	.	.	.
.	.	4r@	.	4r@	.	(>2B-^</	.	2B-^</	.	4r	.	(>2B-^</	.	4r	.	2r	2ryy	.
!	!	!	!	!	!	!	!	!	!	!LO:ART:color=blue	!	!	!	!	!	!	!	!
.	.	(>4En\	.	(>4C#X^>\	.	.	.	.	.	4g^</	.	.	.	(<4BB-/	.	.	.	.
*	*	*	*	*	*	*	*	*	*	*	*	*	*	*	*	*v	*v	*
!!LO:PB:g=original
=18	=18	=18	=18	=18	=18	=18	=18	=18	=18	=18	=18	=18	=18	=18	=18	=18	=18
!	!	!	!	!	!	!LO:TX:t=P:problem=brak zakończenia łuku	!	!	!	!	!	!	!	!LO:TX:t=P:problem=brak zakończenia łuku	!	!LO:TX:t=P:problem=niebieskie ligatury	!
!	!	!LO:TX:t=P:problem=brak zakończenia łuku	!	!LO:N:vis=2	!	!LO:N:vis=2	!	!	!	!	!	!LO:TX:t=P:problem=brak zakończenia łuku	!	!LO:ART:color=blie	!	!LO:ART:color=blue	!
1r	.	2F\)	.	2.D/)	.	2.F/)	.	[<2B-/	.	(<8f/L	.	(<8f/L)	.	(<2D^</)	.	[>2F^>/@ [>2B-@	.
.	.	.	.	.	.	.	.	.	.	8d/	.	8d/	.	.	.	.	.
.	.	.	.	.	.	.	.	.	.	8B-/	.	8B-/	.	.	.	.	.
.	.	.	.	.	.	.	.	.	.	8c/J)	.	8c/J)	.	.	.	.	.
.	.	2r	.	.	.	.	.	8B-/]	.	(<4d/	.	4d/	.	8BB-/)	.	8F/]@ 8B-]@	.
.	.	.	.	.	.	.	.	8r	.	.	.	.	.	8r	.	8r@	.
.	.	.	.	8.B-^>\L	.	8.B-^</L	.	4r	.	8B-/)	.	8.B-^</L	.	4r	.	4r@	.
.	.	.	.	.	.	.	.	.	.	8r	.	.	.	.	.	.	.
.	.	.	.	16F\Jk	.	16F/Jk	.	.	.	.	.	16F/Jk	.	.	.	.	.
=19	=19	=19	=19	=19	=19	=19	=19	=19	=19	=19	=19	=19	=19	=19	=19	=19	=19
*	*	*	*	*	*	*	*	*	*	*	*	*^	*	*	*	*	*
2r	.	2r	.	4F\	.	2F/	.	1r	.	1r	.	[>1F	2rG	.	2r@	.	2r	.
.	.	.	.	4r	.	.	.	.	.	.	.	.	.	.	.	.	.	.
!	!LO:DY:rj	!	!LO:DY:rj	!	!LO:DY:rj	!	!	!	!	!	!	!	!	!	!	!	!	!
2F^<\TT	p	4..FF/	pp	4..AA/ 4..F	pp	4..E-/	.	.	.	.	.	.	4..C^>\	.	4..AA^</	.	4..E-^</	.
.	.	16BB-/	.	16BB-/	.	16D/	.	.	.	.	.	.	16D\	.	16BB-/	.	16D/	.
*	*	*	*	*	*	*	*	*	*	*	*	*v	*v	*	*	*	*	*
=20	=20	=20	=20	=20	=20	=20	=20	=20	=20	=20	=20	=20	=20	=20	=20	=20	=20
4BB-/	.	1BB-	.	1BB- 1D	.	1F	.	1r	.	1r	.	1D 1F]	.	1BB-	.	[>1D	.
8.BB-/L	.	.	.	.	.	.	.	.	.	.	.	.	.	.	.	.	.
16BB-/Jk	.	.	.	.	.	.	.	.	.	.	.	.	.	.	.	.	.
4BB-/	.	.	.	.	.	.	.	.	.	.	.	.	.	.	.	.	.
8.BB-/L	.	.	.	.	.	.	.	.	.	.	.	.	.	.	.	.	.
16BB-/Jk	.	.	.	.	.	.	.	.	.	.	.	.	.	.	.	.	.
=21	=21	=21	=21	=21	=21	=21	=21	=21	=21	=21	=21	=21	=21	=21	=21	=21	=21
4BB-/	.	2BB-/	.	2BB-/ 2D	.	2F/	.	1r	.	2B-/	.	2D/ 2B-	.	2FF/	.	4D/]	.
4BB-/	.	.	.	.	.	.	.	.	.	.	.	.	.	.	.	4r	.
4r	.	2BB-/	.	2BB-/ 2D	.	2F/	.	.	.	2B-/	.	2D/ 2B-	.	2FF/	.	2r	.
4BB-/	.	.	.	.	.	.	.	.	.	.	.	.	.	.	.	.	.
=22	=22	=22	=22	=22	=22	=22	=22	=22	=22	=22	=22	=22	=22	=22	=22	=22	=22
1BB-;>/TT>	.	1BB-;>	.	1BB-;> 1D	.	1F;>	.	1ra;>	.	1B-;>	.	1D;> 1B-	.	1FF;>	.	1rg;>	.
!!LO:LB:g=original
=23||	=23||	=23||	=23||	=23||	=23||	=23||	=23||	=23||	=23||	=23||	=23||	=23||	=23||	=23||	=23||	=23||	=23||
!!!OMD: Lento.
*k[b-e-]	*	*k[b-e-]	*	*k[b-e-]	*	*k[b-e-]	*	*k[b-e-]	*	*k[b-e-]	*	*k[b-]	*	*k[b-e-]	*	*k[b-e-]	*
*M4/4	*	*M4/4	*	*M4/4	*	*M4/4	*	*M4/4	*	*M4/4	*	*M4/4	*	*M4/4	*	*M4/4	*
*met(c)	*	*met(c)	*	*met(c)	*	*met(c)	*	*met(c)	*	*met(c)	*	*met(c)	*	*met(c)	*	*met(c)	*
*	*	*	*	*	*	*	*	*	*	*	*	*^	*	*	*	*	*
!	!	!	!	!	!	!	!	!	!	!	!	!	!	!	!	!	!LO:TX:a:t=a:color=red	!
!LO:TX:b:t=a:color=red	!	!LO:TX:a:t=A = B.\npag 1.	!	!	!	!	!	!LO:TX:b:t=a:color=red	!	!	!LO:DY:rj	!LO:TX:a:t=Solo	!	!LO:DY:rj	!	!LO:DY:rj	!LO:TX:a:t=No 8 B:color=blue:note=podkreślone na czerwono	!LO:DY:rj
1r	.	2BB-/	.	2F\	.	2D/	.	1r	.	2.B-^</	pp	(2.B-^>/	[>1BB-	pp	2D/	pp	(>2F/	pp
!	!	!	!	!LO:SIC:v:s=2G-	!	!	!	!	!	!	!	!	!	!	!	!	!	!
.	.	2E-\	.	2G\	.	2E-/	.	.	.	.	.	.	.	.	2E-/	.	2G-X/	.
.	.	.	.	.	.	.	.	.	.	(<8d/L	.	8d/L	.	.	.	.	.	.
!	!	!	!	!	!	!	!	!	!	!	!	!LO:SIC:v:s=4b-	!	!	!	!	!	!
.	.	.	.	.	.	.	.	.	.	8e-/J)	.	8e/J	.	.	.	.	.	.
=24	=24	=24	=24	=24	=24	=24	=24	=24	=24	=24	=24	=24	=24	=24	=24	=24	=24	=24
1ryy	.	(>4D\	.	(>4D\	.	(>4F/	.	2B-/	.	(<[<2f^>/	.	[2f^>/	4BB-\]	.	[<2F/	.	[<2B-/)	.
.	.	4F\)	.	4F\)	.	4d\)	.	.	.	.	.	.	4r	.	.	.	.	.
.	.	2BB-/	.	2BB-/	.	4B-\	.	2r	.	8f/L]	.	8f/L]	4r	.	8F/]	.	8B-/]	.
.	.	.	.	.	.	.	.	.	.	8d/)	.	8d/	.	.	8r	.	8r	.
.	.	.	.	.	.	4r	.	.	.	(<8c/	.	8c/	8r	.	4r	.	4r	.
.	.	.	.	.	.	.	.	.	.	8B-/J)	.	8B-/J)	8B-\	.	.	.	.	.
=25	=25	=25	=25	=25	=25	=25	=25	=25	=25	=25	=25	=25	=25	=25	=25	=25	=25	=25
1ryy	.	2E-\	.	4BB-/	.	2E-/	.	(<4e-/	.	(<4g^</	.	(>4g^>/	4e-X\	.	(>4BB-/	.	1G	.
.	.	.	.	4BBn/	.	.	.	4d/	.	4f/	.	4f/	4d\	.	4BBn/	.	.	.
.	.	2C\	.	4C/	.	2C/	.	4c/	.	4e-/	.	4e-/	4c\	.	4C/	.	.	.
.	.	.	.	8D/L	.	.	.	4B-/)	.	4d/)	.	4d/)	4BX\	.	8D/L	.	.	.
.	.	.	.	8E-/J	.	.	.	.	.	.	.	.	.	.	8E-/J)	.	.	.
=26	=26	=26	=26	=26	=26	=26	=26	=26	=26	=26	=26	=26	=26	=26	=26	=26	=26	=26
1ryy	.	4F\	.	4F\	.	4.C/	.	2A/	.	2c/	.	4c/	2A\	.	4F\	.	4A/	.
.	.	4E-\	.	4E-\	.	.	.	.	.	.	.	4r	.	.	4E-\	.	4r	.
.	.	.	.	.	.	8r	.	.	.	.	.	.	.	.	.	.	.	.
!	!	!	!	!	!	!	!	!	!	!	!	!LO:TX:t=P:problem=akcent bezpośrednio pod nutą	!	!	!	!	!	!
.	.	8.D^</L	.	8.D^>\L	.	4..F^</	.	2A^</	.	2f^</	.	2f^</	2A\	.	8.D^</L	.	4.F^</	.
.	.	16C/K	.	16C\Jk	.	.	.	.	.	.	.	.	.	.	16C/K	.	.	.
.	.	8.BB-^</	.	8.BB-^</L	.	.	.	.	.	.	.	.	.	.	8.BB-^</	.	.	.
.	.	.	.	.	.	.	.	.	.	.	.	.	.	.	.	.	8r	.
.	.	16AA/Jk	.	16AA/Jk	.	16A/	.	.	.	.	.	.	.	.	16AA/Jk	.	.	.
!!LO:LB:g=original
=27	=27	=27	=27	=27	=27	=27	=27	=27	=27	=27	=27	=27	=27	=27	=27	=27	=27	=27
!LO:TX:t=P:problem=w źródle partia kotłów od drugiego systemu zapisana jest na samej górze, nad pozostałymi instrumentami	!	!	!	!	!	!	!	!	!	!	!	!	!	!	!	!	!	!
1r	.	2GG/	.	2GG^</ 2D	.	4A/	sff	(<4A^</	.	(<[<2B-^</	.	(2B-^>/	(>4A\	.	4GG/	.	1r	.
.	.	.	.	.	.	(<8G/L	.	2.G/)	.	.	.	.	2.G\)	.	(>8G\L	.	.	.
.	.	.	.	.	.	8F/J)	.	.	.	.	.	.	.	.	8F\J)	.	.	.
.	.	2C/	.	2CC^</ 2C	.	2En^</	.	.	.	8B-/L]	.	8B-/L	.	.	2En\	.	.	.
.	.	.	.	.	.	.	.	.	.	8c/J)	.	8c/J)	.	.	.	.	.	.
.	.	.	.	.	.	.	.	.	.	8qen/	.	8qen/	.	.	.	.	.	.
.	.	.	.	.	.	.	.	.	.	8.d/L	.	8.d/L	.	.	.	.	.	.
.	.	.	.	.	.	.	.	.	.	16c/Jk	.	16c/Jk	.	.	.	.	.	.
=28	=28	=28	=28	=28	=28	=28	=28	=28	=28	=28	=28	=28	=28	=28	=28	=28	=28	=28
*	*	*2\left	*	*	*	*	*	*	*	*	*	*	*	*	*	*	*	*
1r	.	(>2.F\	.	(<2.FF/	.	(<4F/	.	8A/	.	4c/	.	4c/	4A\	.	(>4F\	.	4r	.
.	.	.	.	.	.	.	.	8r	.	.	.	.	.	.	.	.	.	.
!	!	!	!	!	!	!	!	!	!	!	!	!	!	!	!	!	!LO:ART:color=blue	!LO:DY:a:rj
.	.	.	.	.	.	2C/)	.	4r	.	8A/L	.	(<8A/L	4r	.	2C/)	.	(>2A^</	p
.	.	.	.	.	.	.	.	.	.	8c/J	.	8c/J)	.	.	.	.	.	.
.	.	.	.	.	.	.	.	(<4A/	.	[>2f^</	.	(>[<2f\	2rA	.	.	.	.	.
.	.	4BBn/)	.	4BBn/)	.	4D-X/	.	4G#X/	.	.	.	.	.	.	4D-X/	.	4G#X/)	.
=29	=29	=29	=29	=29	=29	=29	=29	=29	=29	=29	=29	=29	=29	=29	=29	=29	=29	=29
1ryy	.	1C	.	1CC 1C	.	4.C/	.	2A/)	.	(<8f/L]	.	8f\L]	1r	.	2.C/	.	2A/	.
.	.	.	.	.	.	.	.	.	.	8a/	.	8a\	.	.	.	.	.	.
.	.	.	.	.	.	.	.	.	.	8g/	.	8g\	.	.	.	.	.	.
.	.	.	.	.	.	8A/	.	.	.	8f/J)	.	8f\J)	.	.	.	.	.	.
!	!	!	!	!	!	!LO:ART:color=blue	!	!LO:ART:color=blue	!	!	!	!	!	!	!	!	!	!
.	.	.	.	.	.	(<8B-^</L	.	(<8B-^</L	.	(<4d/	.	4d/	.	.	.	.	(<8B-/L	.
.	.	.	.	.	.	8G/	.	8Gn/	.	.	.	.	.	.	.	.	8Gn/	.
.	.	.	.	.	.	8c/	.	8c/	.	4en/)	.	4en/	.	.	4r	.	8c/	.
.	.	.	.	.	.	8B-/J)	.	8B-/J)	.	.	.	.	.	.	.	.	8B-/J)	.
=30	=30	=30	=30	=30	=30	=30	=30	=30	=30	=30	=30	=30	=30	=30	=30	=30	=30	=30
2r	.	8.F^>\L	.	8.F^>\L	.	4.A/	.	4.A/	.	4.f/	.	4.f\	4.ryy	.	8.F^>\L	.	4.A/	.
.	.	16En\K	.	16En\K	.	.	.	.	.	.	.	.	.	.	16En\K	.	.	.
.	.	(>8E-X\	.	(>8E-X\	.	.	.	.	.	.	.	.	.	.	(>8E-X\	.	.	.
.	.	8D\J)	.	8D\J)	.	8r	.	8r	.	8r	.	8r	8ryy	.	8D\J)	.	8r	.
!LO:S:color=blue	!LO:DY:a:rj	!	!	!	!	!	!	!LO:S:color=blue	!	!LO:S:color=blue	!	!	!	!	!	!	!	!
(>2BB-^</TT	fp	2C^</	.	2CC^</ 2C	.	8.C^</L 8.c	.	2G^/ (>2e-X	.	2G^</ (>2g	.	(>2g/	(>2e-\	.	2C^</	.	8.c^>/L	.
.	.	.	.	.	.	16Bn/K	.	.	.	.	.	.	.	.	.	.	16BX/K	.
.	.	.	.	.	.	(<8B-X/	.	.	.	.	.	.	.	.	.	.	(<8B-/	.
.	.	.	.	.	.	8A/J)	.	.	.	.	.	.	.	.	.	.	8A/J)	.
=31	=31	=31	=31	=31	=31	=31	=31	=31	=31	=31	=31	=31	=31	=31	=31	=31	=31	=31
*	*	*rep	*	*rep	*	*	*	*	*	*	*	*	*	*	*	*	*	*
4F\)	.	8.F^\L	.	8.F^\L	.	2F/	.	2A/)	.	2c/)	.	4c/)	4A\)	.	8.F^>\L	.	4.A/	.
.	.	16En\K	.	16En\K	.	.	.	.	.	.	.	.	.	.	16En\K	.	.	.
4r	.	(8E-X\	.	(8E-X\	.	.	.	.	.	.	.	4r	4ryy	.	(>8E-X\	.	.	.
.	.	8D\J)	.	8D\J)	.	.	.	.	.	.	.	.	.	.	8D\J)	.	8r	.
!LO:TX:t=P:problem=pod nutą zakreślone na czerwono oznaczenie dynamiczne "fp"	!LO:DY:a:rj	!	!	!	!	!	!	!	!	!LO:S:color=blue	!	!	!	!	!	!	!	!
2BB-^</TT	fp	2C^/	.	2CC^/ 2C	.	8.C^</L 8.c	.	2G^</ 2e-X	.	2G^/ (>2g	.	(>2g^>/	(<2e-X\	.	2C^</	.	8.c^</L	.
.	.	.	.	.	.	16B-X/K	.	.	.	.	.	.	.	.	.	.	16B-/K	.
.	.	.	.	.	.	(<8A/	.	.	.	.	.	.	.	.	.	.	8A/	.
.	.	.	.	.	.	8G/J)	.	.	.	.	.	.	.	.	.	.	8G/J	.
*	*	*Xrep	*	*Xrep	*	*	*	*	*	*	*	*	*	*	*	*	*	*
!!LO:PB:g=original
=32	=32	=32	=32	=32	=32	=32	=32	=32	=32	=32	=32	=32	=32	=32	=32	=32	=32	=32
!	!	!LO:ART:color=blue	!	!LO:ART:color=blue	!	!LO:ART:color=blue	!	!LO:ART:color=blue	!	!LO:TX:t=P:problem=brak zakończenia łuku	!	!LO:TX:t=P:problem=brak zakończenia łuku	!LO:TX:t=P:problem=brak zakończenia łuku	!	!	!	!	!
4F\)	.	(>4F^>\	.	(4F^>\	.	(<4A^</	.	(>4B-^</	.	(>4f/)	.	(>4f^</)	4A\)	.	(>4F\	.	(>4A/	.
4F\TT	.	4G\	.	8G\L	.	4G/	.	4B-/	.	8e-X/L	.	8e-X/L	4ryy	.	4G\	.	4B-/	.
.	.	.	.	8E-\J	.	.	.	.	.	8g/J	.	8g/J	.	.	.	.	.	.
4F'\	.	4A\)	.	4F\)	.	4F/)	.	4c/)	.	4f/)	.	4f/)	4ryy	.	4A\)	.	(>4c/)	.
4F'\	.	4B-\	.	4D\	.	4F/	.	4B-/'<	.	4B-'</	.	4B-'>/	4ryy	.	4B-'\	.	4d/)	.
=33	=33	=33	=33	=33	=33	=33	=33	=33	=33	=33	=33	=33	=33	=33	=33	=33	=33	=33
2C^</TT	.	2C^</	.	2CC^</ 2GG	.	2E-^</	.	2B-^</	.	2d^</	.	2d^>/	2B-^<\	.	[>2E-\	.	2E-^</	.
4F\	.	4..F^>\	.	4..FF^</	.	4..E-^</	.	4..A^</	.	4..c^</	.	4..c^>/	4..A\	.	4..E-^\]	.	4..E-^</	.
4F\	.	.	.	.	.	.	.	.	.	.	.	.	.	.	.	.	.	.
.	.	16BB-/	.	16FF/	.	16D/	.	16B-/	.	16B-/	.	16B-/	16B-\	.	16D\	.	16F/	.
*	*	*	*	*	*	*	*	*	*	*	*	*v	*v	*	*	*	*	*
=34	=34	=34	=34	=34	=34	=34	=34	=34	=34	=34	=34	=34	=34	=34	=34	=34	=34
*	*	*	*	*	*	*	*	*	*	*	*	*^	*	*	*	*	*
!LO:TX:b:t=Ende.:color=blue:note:podkreślone na niebiesko	!	!	!	!	!	!	!	!	!	!	!	!	!	!	!	!	!	!
!LO:TX:t=P:problem=ostatni takt w kotłach ponownie zapisany jest pod innymi głosami	!	!	!	!	!	!	!	!	!	!	!	!	!	!	!	!	!	!
1BB-;>/TT>	.	1BB-;>	.	1FF;>	.	1D;>	.	1B-;>	.	1B-;>	.	1B-;>	1B-	.	1D;>	.	1F;>	.
*	*	*	*	*	*	*	*	*	*	*	*	*v	*v	*	*	*	*	*
!!LO:PB:g=original
==35	==35	==35	==35	==35	==35	==35	==35	==35	==35	==35	==35	==35	==35	==35	==35	==35	==35
!!!OMD: Moderato.
*M4/4	*	*M4/4	*	*M4/4	*	*M4/4	*	*M4/4	*	*M4/4	*	*M4/4	*	*M4/4	*	*M4/4	*
*met(c)	*	*met(c)	*	*met(c)	*	*met(c)	*	*met(c)	*	*met(c)	*	*met(c)	*	*met(c)	*	*met(c)	*
!	!	!	!	!	!LO:DY:rj	!	!LO:DY:rj	!	!LO:DY:rj	!	!LO:DY:rj	!	!	!	!	!LO:TX:a:t=No 8. c&colon;)	!
1ryy	.	1r	.	2B-\	ppp	2f\	ppp	2d-X/	ppp	2b-\	ppp	1ryy	.	1ryy	.	1ryy	.
.	.	.	.	2A-X\	.	[>2a-X\	.	2e-/	.	2cc\	.	.	.	.	.	.	.
=36	=36	=36	=36	=36	=36	=36	=36	=36	=36	=36	=36	=36	=36	=36	=36	=36	=36
1ryy	.	1r	.	2D-X\	.	2a-\]	.	2f/	.	2dd-X\	.	1ryy	.	1ryy	.	1ryy	.
.	.	.	.	2G-X\	.	[>2g-X\	.	2d-X/	.	2b-\	.	.	.	.	.	.	.
=37	=37	=37	=37	=37	=37	=37	=37	=37	=37	=37	=37	=37	=37	=37	=37	=37	=37
1ryy	.	1r	.	2E-\	.	2g-\]	.	2e-/	.	4cc-X\	.	1ryy	.	1ryy	.	1ryy	.
.	.	.	.	.	.	.	.	.	.	4b-\	.	.	.	.	.	.	.
.	.	.	.	4F\	.	2f\	.	2c/	.	2a\	.	.	.	.	.	.	.
.	.	.	.	4E-\	.	.	.	.	.	.	.	.	.	.	.	.	.
=38	=38	=38	=38	=38	=38	=38	=38	=38	=38	=38	=38	=38	=38	=38	=38	=38	=38
1ryy	.	1r	.	4D\	.	1f	.	1B-	.	2.ff\	.	1ryy	.	1ryy	.	1ryy	.
.	.	.	.	8E-\L	.	.	.	.	.	.	.	.	.	.	.	.	.
.	.	.	.	8F\J	.	.	.	.	.	.	.	.	.	.	.	.	.
.	.	.	.	2Gn\	.	.	.	.	.	.	.	.	.	.	.	.	.
.	.	.	.	.	.	.	.	.	.	4dd\	.	.	.	.	.	.	.
=39	=39	=39	=39	=39	=39	=39	=39	=39	=39	=39	=39	=39	=39	=39	=39	=39	=39
1ryy	.	1r	.	2C/	.	2en\	.	2B-/	.	(>4dd^>\	.	1ryy	.	1ryy	.	1ryy	.
.	.	.	.	.	.	.	.	.	.	4cc\)	.	.	.	.	.	.	.
.	.	.	.	2F\	.	2e-X\	.	2An/	.	[<2f/	.	.	.	.	.	.	.
!!LO:LB:g=original
=40	=40	=40	=40	=40	=40	=40	=40	=40	=40	=40	=40	=40	=40	=40	=40	=40	=40
!	!	!	!	!	!	!	!	!	!	!LO:TX:t=P:problem=brak zakończenia ligatury	!	!	!	!	!	!	!
1ryy	.	1r	.	2BB-/	.	2d\	.	2B-/	.	4f/]	.	1ryy	.	1ryy	.	1ryy	.
.	.	.	.	.	.	.	.	.	.	(<8g/L	.	.	.	.	.	.	.
.	.	.	.	.	.	.	.	.	.	8a/J)	.	.	.	.	.	.	.
.	.	.	.	2GG/	.	2B-/	.	4.d/	.	4b-\	.	.	.	.	.	.	.
.	.	.	.	.	.	.	.	.	.	(>8cc\L	.	.	.	.	.	.	.
.	.	.	.	.	.	.	.	8f/	.	8dd\J)	.	.	.	.	.	.	.
=41	=41	=41	=41	=41	=41	=41	=41	=41	=41	=41	=41	=41	=41	=41	=41	=41	=41
1ryy	.	1r	.	2CC/	.	2B-/	.	2g/	.	4.een^>\	.	1ryy	.	1ryy	.	1ryy	.
.	.	.	.	.	.	.	.	.	.	8dd\	.	.	.	.	.	.	.
.	.	.	.	2BB-/	.	2G/	.	2en/	.	(4dd^>\	.	.	.	.	.	.	.
.	.	.	.	.	.	.	.	.	.	8b-\L)	.	.	.	.	.	.	.
.	.	.	.	.	.	.	.	.	.	8a\J	.	.	.	.	.	.	.
=42	=42	=42	=42	=42	=42	=42	=42	=42	=42	=42	=42	=42	=42	=42	=42	=42	=42
1ryy	.	1r	.	(>4D-X\	.	2F/	.	2f/	.	2.b-^</	.	1ryy	.	1ryy	.	1ryy	.
.	.	.	.	4Dn\	.	.	.	.	.	.	.	.	.	.	.	.	.
.	.	.	.	2E-\)	.	(<4G^</	.	2e-X/	.	.	.	.	.	.	.	.	.
.	.	.	.	.	.	8A/L)	.	.	.	(<8a/L	.	.	.	.	.	.	.
.	.	.	.	.	.	8B-/J	.	.	.	8g/J)	.	.	.	.	.	.	.
=43	=43	=43	=43	=43	=43	=43	=43	=43	=43	=43	=43	=43	=43	=43	=43	=43	=43
1ryy	.	1r	.	2F\	.	(<2.B-^</	.	4.d/	.	4f/	.	1ryy	.	1ryy	.	1ryy	.
.	.	.	.	.	.	.	.	.	.	(>8b-\L	.	.	.	.	.	.	.
.	.	.	.	.	.	.	.	8g/	.	8ee-\J)	.	.	.	.	.	.	.
.	.	.	.	2FF/	.	.	.	4.f^</	.	4.dd^>\	.	.	.	.	.	.	.
.	.	.	.	.	.	4A/)	.	.	.	.	.	.	.	.	.	.	.
.	.	.	.	.	.	.	.	8e-/	.	8cc\	.	.	.	.	.	.	.
=44	=44	=44	=44	=44	=44	=44	=44	=44	=44	=44	=44	=44	=44	=44	=44	=44	=44
1ryy	.	1r	.	(<2GG-X/	.	(<2B-/	.	(<2e-/	.	[>1b-	.	1ryy	.	1ryy	.	1ryy	.
.	.	.	.	4FF/	.	4A-X/	.	4dn/	.	.	.	.	.	.	.	.	.
.	.	.	.	4EE-/)	.	4G-X/)	.	4e-/)	.	.	.	.	.	.	.	.	.
=45	=45	=45	=45	=45	=45	=45	=45	=45	=45	=45	=45	=45	=45	=45	=45	=45	=45
!	!	!	!LO:DY:rj	!	!	!	!	!	!	!	!	!	!	!	!	!	!
1ryy	.	1BB-;>	ppp	1BB-;>	.	1F;>	.	1d;>	.	1b-;>]	.	1ryy	.	1ryy	.	1ryy	.
==	==	==	==	==	==	==	==	==	==	==	==	==	==	==	==	==	==
*-	*-	*-	*-	*-	*-	*-	*-	*-	*-	*-	*-	*-	*-	*-	*-	*-	*-
!!!system-decoration: g1,g2,g3,g4
!!!ENC: Krzysztof Stępień
!!!END: 2021-08-30
!!!EED: Jędrzej Mróz
!!!ESR: 2021-09-22
!!!RDF**kern: > = above
!!!RDF**kern: < = below
!!!RDF**kern: @ = marked note, color=blue
